X:1
T:Title
%%score ( 1 2 ) ( 3 4 )
L:1/8
Q:1/4=108
M:4/4
K:G
V:1 treble nm="Midi_20"
V:2 treble 
V:3 bass nm="Midi_20"
V:4 bass 
V:1
"^Golden Sheaves (8 7. 8 7. D.)""^Sir Arthur Sullivan\n(1842-1900)""^To Thee, O Lord, our hearts we raise" D2 | %1
 B2 d2 d2 c2 | B2 A2 G2 G2 | A2 B2 c2 E2 | F4 G2 || D2 | B2 d2 d2 c2 | B2 A2 G2 B2 | B2 A2 B2 ^c2 | %9
 e4 d2 || A2 | A3 A d2 B2 | A2 ^G2 B2 E2 | c2 c2 d2 (cd) | e4 e2 || (cd) x6 | e2 e2 d2 G2 | %17
 c2 c2 B2 G2 | A2 B2 c2 E2 |] F4 G2 | %20
V:2
 D2 | G2 F2 G2 A2 | G2 F2 G2 D2 | E2 D2 C2 C2 | C4 B,2 || D2 | G2 F2 G2 A2 | G2 F2 G2 G2 | %8
 G2 G2 G2 G2 | G4 F2 || F2 | F3 F F2 F2 | E2 E2 E2 E2 | E2 E2 G2 G2 | G4 G2 || E2 G2 A2 A2 | %16
 G2 G2 F2 G2 | D2 E2 D2 C2 | E2 D4 D2 |] x6 | %20
V:3
 D,2 | D2 D2 D2 D2 | D2 C2 B,2 G,2 | E,3 E, E,2 A,2 | A,4 G,2 || D,2 | D2 D2 D2 D2 | D2 C2 B,2 D2 | %8
 ^C2 C2 D2 E2 | ^C4 D2 || D2 | D3 D D2 D2 | B,3 A, ^G,2 G,2 | A,2 A,2 B,2 (A,B,) | C4 C2 || %15
"^1. To Thee, O Lord, our hearts we raise\n    In hymns of adoration,\n    To Thee bring sacrifice of praise,\n    With shouts of exultation.\n    Bright robes of gold the fields adorn,\n    The Hills with Joy are ringing,\n    The valleys stand so thick with corn\n    That even they are singing.\n\n2. And now, on this our festal day,\n    Thy bounteous hand confessing,\n    Before Thee thankfully we lay\n    The first-fruits of Thy blessing.\n    By Thee the souls of men are fed\n    With gifts of grace supernal;\n    Thou who dost give us earthly bread,\n    Give us the Bread eternal." C2 x6 | %16
 C2 C2 B,2 (CD) | %17
"^3. We bear the burden of the day,\n    And often toil seems dreary;\n    But labour ends with sunset ray,\n    And rest comes to the weary.\n    May we, the angel-reaping o'er,\n    Stand at the last accepted,\n    Christ's golden sheaves, for evermore\n    To garners bright elected.\n\n4. O blessèd is that land of God\n    Where saints abide for ever,\n    Where golden fields spread far and broad,\n    Where flows the crystal river.\n    The strains of all its holy throng\n    With ours today are blending;\n    Thrice blessèd is that harvest song\n    Which never hath an ending." E2 D2 G,2 G,2 | %18
"^William Chatterton Dix\n(1837-98)" E,3 E, E,2 C2 |] C4 B,2 | %20
V:4
 D,2 | G,2 A,2 B,2 F,2 | G,2 D,2 E,2 B,,2 | C,2 B,,2 A,,2 A,,2 | D,4 G,,2 || D,2 | %6
 G,2 A,2 B,2 F,2 | G,2 D,2 E,2 E,2 | A,,2 A,,2 A,2 A,2 | A,4 D,2 || D,2 | D,3 D, B,,2 D,2 | %12
 E,3 F, ^G,2 E,2 | A,2 A,2 G,2 G,2 | C4 C,2 || C,2 C2 F,2 B,2 | B,2 A,2 D,2 E,2 | %17
 B,,2 C,2 B,,2 A,,2 | A,,2 D,4 G,,2 |] x6 | %20

